pro/src/icons/stroke-code.svg

<svg width="48" height="48" viewBox="0 0 48 48" fill="none" xmlns="http://www.w3.org/2000/svg">
<path id="icon" fill="currentColor" fill-rule="evenodd" clip-rule="evenodd" d="M20.6537 4.87335C21.3044 4.22276 22.2145 3.90559 23.1301 4.02463L38.0524 5.89087C38.1147 5.89867 38.175 5.91209 38.2328 5.93057C38.6306 6.01918 38.9486 6.34906 39.0021 6.77665L40.7809 21.6727C40.8989 22.5798 40.5889 23.5043 39.9285 24.1524L39.7332 24.3477C42.8816 26.1683 44.9999 29.5717 44.9999 33.4697C44.9999 39.2853 40.2845 44 34.468 44C30.5695 44 27.1656 41.882 25.3447 38.7341L23.1503 40.9281C21.988 42.0903 20.0981 42.0903 18.9358 40.9281L9.05538 31.0492C8.66759 30.6615 8.66759 30.0328 9.05538 29.6451C9.44318 29.2574 10.0719 29.2574 10.4597 29.6451L20.3401 39.524C20.7269 39.9107 21.3592 39.9107 21.746 39.524L24.4728 36.7976C24.1246 35.7516 23.936 34.6326 23.936 33.4697C23.936 27.654 28.6514 22.9393 34.468 22.9393C35.6311 22.9393 36.7501 23.1278 37.7963 23.476L38.5277 22.7447L38.5359 22.7367C38.7455 22.5319 38.8509 22.2288 38.8114 21.9277L38.8106 21.9219L37.1213 7.77562L22.881 5.99467L22.8751 5.9939C22.5804 5.95526 22.2802 6.05531 22.0578 6.27767L5.27621 23.0468C4.88945 23.4335 4.88945 24.0658 5.27621 24.4525L6.41816 25.5942C6.80596 25.982 6.80595 26.6106 6.41816 26.9983C6.03037 27.3861 5.40163 27.3861 5.01384 26.9983L3.87188 25.8566C2.70955 24.6944 2.70975 22.8046 3.87209 21.6425L20.6537 4.87335ZM34.0963 14.6799C34.0963 16.8741 32.3188 18.6513 30.1243 18.6513C27.9397 18.6513 26.1523 16.8741 26.1523 14.6799C26.1523 12.4857 27.9297 10.7085 30.1243 10.7085C32.3188 10.7085 34.0963 12.4857 34.0963 14.6799ZM32.1103 14.6799C32.1103 13.5878 31.2166 12.6942 30.1243 12.6942C29.032 12.6942 28.1383 13.5878 28.1383 14.6799C28.1383 15.772 29.032 16.6656 30.1243 16.6656C31.2166 16.6656 32.1103 15.772 32.1103 14.6799ZM34.468 24.9329C29.7526 24.9329 25.93 28.755 25.93 33.4697C25.93 38.1843 29.7526 42.0064 34.468 42.0064C39.1833 42.0064 43.006 38.1843 43.006 33.4697C43.006 28.755 39.1833 24.9329 34.468 24.9329ZM35.4543 28.8835C35.4543 28.3391 35.013 27.8973 34.4679 27.8973C33.9687 27.8973 33.5557 28.2681 33.4905 28.7499L33.4816 28.8835V32.4834H29.8812C29.3367 32.4834 28.8948 32.9252 28.8948 33.4696C28.8948 33.9688 29.2657 34.3817 29.747 34.4469L29.8812 34.4559H33.4816V38.0557C33.4816 38.6001 33.9229 39.0419 34.4679 39.0419C34.9672 39.0419 35.3801 38.6711 35.4454 38.1898L35.4543 38.0557V34.4559H39.0547C39.5992 34.4559 40.0411 34.0145 40.0411 33.4696C40.0411 32.9705 39.6702 32.5576 39.1889 32.4923L39.0547 32.4834H35.4543V28.8835Z" />
</svg>

<svg xmlns="http://www.w3.org/2000/svg" width="48" height="48" fill="none"><path id="icon" fill="currentColor" fill-rule="evenodd" d="M20.654 4.873a2.96 2.96 0 0 1 2.476-.848L38.052 5.89a1 1 0 0 1 .18.04.99.99 0 0 1 .77.846l1.779 14.896a2.95 2.95 0 0 1-.852 2.48l-.196.195A10.53 10.53 0 0 1 45 33.47C45 39.285 40.285 44 34.468 44a10.53 10.53 0 0 1-9.123-5.266l-2.195 2.194a2.983 2.983 0 0 1-4.214 0l-9.88-9.879a.993.993 0 1 1 1.404-1.404l9.88 9.879a.997.997 0 0 0 1.406 0l2.727-2.726a10.5 10.5 0 0 1-.537-3.328c0-5.816 4.715-10.53 10.532-10.53 1.163 0 2.282.188 3.328.536l.732-.731.008-.008a.96.96 0 0 0 .275-.81v-.005L37.12 7.776l-14.24-1.781-.006-.001a.97.97 0 0 0-.817.284L5.276 23.047a.997.997 0 0 0 0 1.406l1.142 1.141a.993.993 0 1 1-1.404 1.404l-1.142-1.141a2.98 2.98 0 0 1 0-4.215zm13.442 9.807a3.97 3.97 0 0 1-3.972 3.971 3.97 3.97 0 1 1 0-7.943 3.97 3.97 0 0 1 3.972 3.972m-1.986 0a1.99 1.99 0 0 0-1.986-1.986 1.99 1.99 0 0 0-1.986 1.986c0 1.092.894 1.986 1.986 1.986a1.99 1.99 0 0 0 1.986-1.986m2.358 10.253a8.537 8.537 0 1 0 0 17.073 8.537 8.537 0 1 0 0-17.073m.986 3.95a.986.986 0 0 0-1.964-.133l-.008.134v3.6h-3.6a.987.987 0 0 0-.135 1.963l.134.009h3.6v3.6a.986.986 0 0 0 1.964.134l.01-.134v-3.6h3.6a.986.986 0 0 0 .134-1.964l-.134-.009h-3.6z" clip-rule="evenodd"/></svg>
